vendor/shopware/storefront/Resources/app/storefront/dist/assets/icon/solid/checkmark.svg

<svg xmlns="http://www.w3.org/2000/svg" width="16" height="16" viewBox="0 0 16 16">
  <path fill="#758CA3" fill-rule="evenodd" d="M3.70710678,8.29289322 C3.31658249,7.90236893 2.68341751,7.90236893 2.29289322,8.29289322 C1.90236893,8.68341751 1.90236893,9.31658249 2.29289322,9.70710678 L5.29289322,12.7071068 C5.68341751,13.0976311 6.31658249,13.0976311 6.70710678,12.7071068 L13.7071068,5.70710678 C14.0976311,5.31658249 14.0976311,4.68341751 13.7071068,4.29289322 C13.3165825,3.90236893 12.6834175,3.90236893 12.2928932,4.29289322 L6,10.5857864 L3.70710678,8.29289322 Z"/>
</svg>

<svg xmlns="http://www.w3.org/2000/svg" width="16" height="16" viewBox="0 0 16 16"><path fill="#758CA3" fill-rule="evenodd" d="M3.7071 8.2929c-.3905-.3905-1.0237-.3905-1.4142 0-.3905.3905-.3905 1.0237 0 1.4142l3 3c.3905.3905 1.0237.3905 1.4142 0l7-7c.3905-.3905.3905-1.0237 0-1.4142-.3905-.3905-1.0237-.3905-1.4142 0L6 10.5858l-2.2929-2.293z"/></svg>
